X: 21053
M: 2/4
L: 1/8
K: F
(d/e/) |\
fcdB | A>Bc_A | G>F_EG | _eG Gd/=e/ |\
fcdB | A>BcA | BGfe | fFF |]


